X: 28029
T: Moving In Old Decency
R: reel
M: 4/4
K: Adorian
ea a2 eaag|eaag (3efg dc|Bdgd Bdgd|Bdgd edBd|
ea a2 eaag|eaag (3efg dB|c3B cege|dcBc ABcd:|
e2ab aged|(3efg ab c'aba|g2af gfed|(3efg ab c'abg|
ea a2 aged|(3efg ac' c'age|c3B cege|dcBc ABcd:|

